X: 1651
T: Kirk's Jig
C:Trad
B: australian traditional tunes wiki
M:6/8
L:1/8
R: Jig
Q: 3/8=100
K:A
V:1 
|:{B}"A"cAc {c}"D"dBd|"A"{B}cAc "G"B2A|"A"cAc "D"dBd|"A"cAA A3:|
|:"A"cea "D"f2e|"A"cAc {Bc}"G"BAB|"A"cea "D"f2e|"A"{B}cAB A3:|
|"A"cAc "D"dBd|"A"cAc {c}"G"BAB|"A"cAc "D"dBd|"A"cAB {B}A3|
"A"cAc "D"eBd|"A"cAc "G"B2A|"A"cAc "D"dBd|"A"cAA A2E|
"A"EAA cAA|"D"{c}BAB "A"cAA|EAA {A}cAA|"Bm"{A}BAF "D"F2E|
"A"EAA cAA|"D"BAB "A"c2d|e2f ecA|"Bm"{A}BAF "A"A3||
% abcbook-tune_id 6342d53a098698ed7af1176f


% abcbook-boost 0
% abcbook-tablature 
% abcbook-transpose 
% abcbook-lastupdated 1665324376102
% abcbook-soundfonts 
% abcbook-repeats 1
% NFF Book 2018

